X:19047
T:Star of Munster, The
R:Reel
C:Trad.
O:Ireland
Z:Paul Hardy's Session Tunebook 2015 (see www.paulhardy.net). Creative Commons cc by-nc-sa licenced.
M:4/4
L:1/8
Q:1/4=140
K:Ador
ed|"Am"c2 Ac "G"BAGB|"Am"AGEF "G"GEDG|"Am"EAAG ABcd|"G"eaaf gedB|
"Am"c2Ac "G"BAGB|"Am"AGEF "G"GEDG|"Am"EAAG ABcd|"G"ecdB "Am"A2:|
Bd|:"Am"eaab ageg|agbg agef|"G"gfga gfef|(3gfe af gfed|
"Am"eaab ageg|agbg agef|"G"g2 ge a2 ga|b3 a gfed:|"Em"e4|]

